X: 41
M:2/4
L:1/8
K:C
(G/F/)|EG cf|e>^d e/=d/c|A^G/A/ d/c/A|G3 (G/F/)|EGcf|
e>^d e/=d/c|d/^c/d/e/ ^f/d/e/f/|g3 (G/F/)|EGcf|e>^d e/=d/c|
g/^f/g a/g/e|c2e2|A/^G/A d/cA/|G3z|g>^fg/ a/ge/|c2e2|
d/^c/d/e/ ^f/d/e/f/|(g2g2)|g>^fg/ a/g/e|c2e2|A/^G/A d/cA/|



